; generated by Slic3r Prusa Edition 1.39.1-beta-prusa3d-win64 on 2018-05-04 at 15:06:57

; After many experiments, I found, that 0.15mm first layer height is the cleanest look in a mirror.

; external perimeters extrusion width = 0.34mm
; perimeters extrusion width = 0.34mm
; infill extrusion width = 0.34mm
; solid infill extrusion width = 0.34mm
; top infill extrusion width = 0.30mm
; support material extrusion width = 0.30mm

M107
M80 ; turn on PSU
M190 S60
M104 S210 ; start E heating
M17; enable motors
G28 X Y ; Z ; Home
M109 S210
G91
G1 E5 F200
G90
; Filament gcode
G21 ; set units to millimeters
G90 ; use absolute coordinates
M82 ; use absolute distances for extrusion
G92 E0
G1 E-1.00000 F3000.00000
G92 E0
G1 Z0.200 F2700.000
G1 X157.752 Y125.399 F2700.000
G1 E1.00000 F3000.00000
G1 F900
G1 X158.369 Y124.725 E1.02149
G1 X159.012 Y124.243 E1.04039
G1 X159.729 Y123.882 E1.05928
G1 X160.499 Y123.650 E1.07817
G1 X161.297 Y123.557 E1.09706
G1 X203.594 Y123.439 E2.09166
G1 X219.677 Y123.603 E2.46988
G1 X220.791 Y123.913 E2.49706
G1 X221.796 Y124.494 E2.52437
G1 X222.620 Y125.304 E2.55155
G1 X223.217 Y126.300 E2.57885
G1 X223.501 Y127.175 E2.60047
G1 X223.604 Y128.088 E2.62209
G1 X223.600 Y159.226 E3.35427
G1 X223.441 Y160.233 E3.37824
G1 X222.673 Y162.610 E3.43698
G1 X222.178 Y163.501 E3.46095
G1 X221.499 Y164.261 E3.48492
G1 X220.847 Y164.748 E3.50406
G1 X220.114 Y165.114 E3.52332
G1 X219.333 Y165.343 E3.54246
G1 X218.518 Y165.430 E3.56172
G1 X161.907 Y165.307 E4.89292
G1 X160.962 Y165.201 E4.91528
G1 X160.054 Y164.900 E4.93777
G1 X159.233 Y164.421 E4.96013
G1 X158.524 Y163.779 E4.98261
G1 X157.999 Y163.063 E5.00349
G1 X157.619 Y162.255 E5.02449
G1 X156.969 Y160.098 E5.07746
G1 X156.840 Y159.039 E5.10255
G1 X156.845 Y127.938 E5.83388
G1 X156.977 Y127.033 E5.85537
G1 X157.283 Y126.178 E5.87674
G1 X157.728 Y125.438 E5.89706
G1 X157.980 Y125.590 F2700.000
G1 F900
G1 X158.580 Y124.931 E5.91800
G1 X159.179 Y124.486 E5.93555
G1 X159.851 Y124.150 E5.95322
G1 X160.567 Y123.937 E5.97078
G1 X161.313 Y123.851 E5.98845
G1 X203.594 Y123.734 E6.98267
G1 X219.603 Y123.890 E7.35914
G1 X220.658 Y124.176 E7.38484
G1 X221.602 Y124.716 E7.41041
G1 X222.383 Y125.480 E7.43610
G1 X222.947 Y126.416 E7.46180
G1 X223.213 Y127.238 E7.48211
G1 X223.309 Y128.097 E7.50242
G1 X223.305 Y159.209 E8.23401
G1 X223.156 Y160.158 E8.25660
G1 X222.404 Y162.489 E8.31420
G1 X221.936 Y163.333 E8.33691
G1 X221.290 Y164.052 E8.35961
G1 X220.678 Y164.505 E8.37753
G1 X219.996 Y164.844 E8.39544
G1 X219.264 Y165.056 E8.41336
G1 X218.506 Y165.135 E8.43127
G1 X161.908 Y165.012 E9.76216
G1 X161.019 Y164.912 E9.78319
G1 X160.166 Y164.628 E9.80434
G1 X159.395 Y164.175 E9.82537
G1 X158.731 Y163.568 E9.84652
G1 X158.243 Y162.899 E9.86599
G1 X157.892 Y162.143 E9.88559
G1 X157.257 Y160.036 E9.93735
G1 X157.135 Y159.037 E9.96101
G1 X157.139 Y127.960 E10.69177
G1 X157.261 Y127.110 E10.71196
G1 X157.550 Y126.302 E10.73215
G1 X157.957 Y125.628 E10.75065
G1 F2160
G1 X158.437 Y125.091 E9.80065
G1 E9.75065 F3000.00000
G92 E0
G1 X221.650 Y160.822 F2700.000
G1 E1.00000 F3000.00000
G1 F900
G1 X221.633 Y161.366 E1.01279
G1 X221.452 Y162.025 E1.02887
G1 X220.984 Y162.802 E1.05018
G1 X220.280 Y163.443 E1.07258
G1 X218.971 Y163.934 E1.10547
G1 X161.595 Y163.940 E2.45462
G1 X160.137 Y163.405 E2.49115
G1 X159.455 Y162.772 E2.51303
G1 X159.138 Y162.335 E2.52571
G1 X158.775 Y161.365 E2.55008
G1 X158.735 Y160.753 E2.56449
G1 X158.560 Y160.499 E2.57176
G1 X158.207 Y159.416 E2.59854
G1 X158.207 Y127.796 E3.34206
G1 X158.742 Y126.338 E3.37858
G1 X159.375 Y125.657 E3.40046
G1 X159.818 Y125.335 E3.41334
G1 X161.096 Y124.923 E3.44491
G1 X219.404 Y124.931 E4.81599
G1 X220.395 Y125.226 E4.84030
G1 X221.149 Y125.721 E4.86151
G1 X221.913 Y126.700 E4.89071
G1 X222.237 Y127.823 E4.91819
G1 X222.237 Y159.416 E5.66110
G1 X221.883 Y160.503 E5.68798
G1 X221.677 Y160.786 E5.69622
G1 X221.442 Y160.607 F2700.000
G1 F900
G1 X221.357 Y160.719 E5.69951
G1 X221.344 Y161.309 E5.71338
G1 X221.188 Y161.893 E5.72761
G1 X220.769 Y162.599 E5.74691
G1 X220.103 Y163.207 E5.76812
G1 X218.944 Y163.640 E5.79720
G1 X161.621 Y163.645 E7.14513
G1 X160.316 Y163.169 E7.17780
G1 X159.667 Y162.566 E7.19863
G1 X159.389 Y162.180 E7.20981
G1 X159.059 Y161.285 E7.23225
G1 X159.025 Y160.650 E7.24721
G1 X158.831 Y160.383 E7.25497
G1 X158.502 Y159.392 E7.27952
G1 X158.502 Y127.822 E8.02187
G1 X158.978 Y126.517 E8.05453
G1 X159.581 Y125.868 E8.07537
G1 X159.971 Y125.587 E8.08667
G1 X161.119 Y125.217 E8.11503
G1 X219.381 Y125.225 E9.48504
G1 X220.288 Y125.502 E9.50734
G1 X220.933 Y125.924 E9.52546
G1 X221.639 Y126.811 E9.55212
G1 X221.942 Y127.844 E9.57744
G1 X221.942 Y159.392 E10.31927
G1 X221.612 Y160.385 E10.34388
G1 X221.470 Y160.572 E10.34940
G1 F2160
G1 X221.357 Y160.719 E10.10533
G1 F2160
G1 X221.345 Y161.254 E9.39940
G1 E9.34940 F3000.00000
G92 E0
G1 X221.064 Y160.612 F2700.000
G1 E1.00000 F3000.00000
G1 F900
G1 X221.054 Y161.253 E1.01508
G1 X220.923 Y161.764 E1.02747
G1 X220.553 Y162.397 E1.04471
G1 X219.925 Y162.970 E1.06470
G1 X218.918 Y163.345 E1.08998
G1 X161.647 Y163.351 E2.43669
G1 X160.495 Y162.933 E2.46550
G1 X159.879 Y162.361 E2.48527
G1 X159.641 Y162.027 E2.49491
G1 X159.344 Y161.207 E2.51542
G1 X159.316 Y160.543 E2.53105
G1 X159.102 Y160.263 E2.53934
G1 X158.797 Y159.367 E2.56159
G1 X158.797 Y127.848 E3.30276
G1 X159.214 Y126.696 E3.33157
G1 X159.786 Y126.080 E3.35134
G1 X160.123 Y125.841 E3.36105
G1 X161.142 Y125.512 E3.38623
G1 X219.358 Y125.520 E4.75517
G1 X220.181 Y125.777 E4.77543
G1 X220.720 Y126.127 E4.79054
G1 X221.365 Y126.924 E4.81466
G1 X221.648 Y127.866 E4.83778
G1 X221.648 Y159.367 E5.57851
G1 X221.342 Y160.264 E5.60079
G1 X221.092 Y160.577 E5.61021
G1 X220.866 Y160.388 F2700.000
G1 F900
G1 X220.770 Y160.503 E5.61373
G1 X220.764 Y161.201 E5.63014
G1 X220.656 Y161.637 E5.64070
G1 X220.337 Y162.195 E5.65583
G1 X219.748 Y162.733 E5.67460
G1 X218.892 Y163.051 E5.69606
G1 X161.672 Y163.056 E7.04157
G1 X160.673 Y162.697 E7.06652
G1 X160.091 Y162.156 E7.08520
G1 X159.895 Y161.875 E7.09327
G1 X159.630 Y161.131 E7.11184
G1 X159.608 Y160.433 E7.12826
G1 X159.370 Y160.139 E7.13715
G1 X159.091 Y159.342 E7.15702
G1 X159.091 Y127.873 E7.89699
G1 X159.450 Y126.874 E7.92195
G1 X159.991 Y126.292 E7.94063
G1 X160.273 Y126.095 E7.94873
G1 X161.165 Y125.806 E7.97077
G1 X219.335 Y125.814 E9.33861
G1 X220.072 Y126.051 E9.35681
G1 X220.508 Y126.333 E9.36902
G1 X221.093 Y127.039 E9.39059
G1 X221.353 Y127.889 E9.41147
G1 X221.353 Y159.342 E10.15107
G1 X221.074 Y160.139 E10.17095
G1 X220.895 Y160.353 E10.17751
G1 F2160
G1 X220.770 Y160.503 E9.92091
G1 F2160
G1 X220.765 Y161.028 E9.22751
G1 E9.17751 F3000.00000
G92 E0
G1 X220.477 Y160.389 F2700.000
G1 E1.00000 F3000.00000
G1 F900
G1 X220.469 Y161.181 E1.01863
G1 X220.389 Y161.512 E1.02663
G1 X220.118 Y161.997 E1.03970
G1 X219.614 Y162.469 E1.05594
G1 X218.864 Y162.756 E1.07483
G1 X161.697 Y162.761 E2.41909
G1 X160.851 Y162.461 E2.44019
G1 X160.304 Y161.952 E2.45776
G1 X160.149 Y161.726 E2.46421
G1 X159.916 Y161.057 E2.48086
G1 X159.901 Y160.320 E2.49819
G1 X159.637 Y160.012 E2.50774
G1 X159.386 Y159.315 E2.52514
G1 X159.386 Y127.898 E3.26391
G1 X159.687 Y127.053 E3.28501
G1 X160.195 Y126.505 E3.30258
G1 X160.422 Y126.350 E3.30904
G1 X161.189 Y126.101 E3.32799
G1 X219.311 Y126.109 E4.69471
G1 X219.961 Y126.324 E4.71083
G1 X220.298 Y126.541 E4.72025
G1 X220.821 Y127.157 E4.73926
G1 X221.058 Y127.912 E4.75785
G1 X221.058 Y159.315 E5.49630
G1 X220.807 Y160.011 E5.51370
G1 X220.506 Y160.355 E5.52444
G1 F2160
G1 X220.474 Y161.074 E4.57444
G1 E4.52444 F3000.00000
G92 E0
G1 X220.183 Y160.271 F2700.000
G1 E1.00000 F3000.00000
G1 F900
G1 X220.175 Y161.162 E1.02095
G1 X220.121 Y161.389 E1.02644
G1 X219.896 Y161.802 E1.03750
G1 X219.477 Y162.207 E1.05120
G1 X218.835 Y162.462 E1.06743
G1 X161.721 Y162.467 E2.41044
G1 X161.030 Y162.224 E2.42769
G1 X160.518 Y161.749 E2.44410
G1 X160.405 Y161.580 E2.44888
G1 X160.203 Y160.986 E2.46364
G1 X160.195 Y160.204 E2.48201
G1 X159.902 Y159.880 E2.49230
G1 X159.680 Y159.288 E2.50715
G1 X159.680 Y127.923 E3.24470
G1 X159.923 Y127.231 E3.26194
G1 X160.399 Y126.719 E3.27836
G1 X160.568 Y126.607 E3.28314
G1 X161.212 Y126.395 E3.29908
G1 X219.285 Y126.403 E4.66465
G1 X219.849 Y126.597 E4.67867
G1 X220.088 Y126.749 E4.68533
G1 X220.577 Y127.325 E4.70309
G1 X220.764 Y127.933 E4.71805
G1 X220.764 Y159.288 E5.45535
G1 X220.543 Y159.879 E5.47020
G1 X220.214 Y160.238 E5.48164
G1 F2160
G1 X220.184 Y160.957 E4.53164
G1 E4.48164 F3000.00000
G92 E0
G1 X219.890 Y160.150 F2700.000
G1 E1.00000 F3000.00000
G1 F900
G1 X219.881 Y161.144 E1.02337
G1 X219.851 Y161.270 E1.02641
G1 X219.671 Y161.612 E1.03550
G1 X219.335 Y161.947 E1.04666
G1 X218.805 Y162.167 E1.06016
G1 X161.745 Y162.172 E2.40190
G1 X161.207 Y161.987 E2.41529
G1 X160.733 Y161.547 E2.43049
G1 X160.663 Y161.437 E2.43356
G1 X160.497 Y160.958 E2.44547
G1 X160.488 Y160.083 E2.46605
G1 X160.164 Y159.743 E2.47710
G1 X159.975 Y159.259 E2.48931
G1 X159.975 Y127.947 E3.22562
G1 X160.160 Y127.408 E3.23900
G1 X160.601 Y126.935 E3.25421
G1 X160.710 Y126.865 E3.25725
G1 X161.236 Y126.690 E3.27029
G1 X203.282 Y126.703 E4.25899
G1 X219.213 Y126.690 E4.63360
G1 X219.739 Y126.871 E4.64667
G1 X219.879 Y126.958 E4.65056
G1 X220.332 Y127.491 E4.66701
G1 X220.469 Y127.954 E4.67835
G1 X220.469 Y159.259 E5.41449
G1 X220.280 Y159.743 E5.42670
G1 X219.921 Y160.117 E5.43890
G1 X219.719 Y159.902 F2700.000
G1 F900
G1 X219.597 Y159.978 E5.44229
G1 X219.579 Y161.155 E5.46997
G1 X219.445 Y161.421 E5.47698
G1 X219.148 Y161.718 E5.48687
G1 X218.776 Y161.872 E5.49633
G1 X161.772 Y161.878 E6.83676
G1 X161.338 Y161.721 E6.84760
G1 X160.936 Y161.324 E6.86090
G1 X160.783 Y160.885 E6.87182
G1 X160.783 Y159.959 E6.89360
G1 X160.423 Y159.600 E6.90555
G1 X160.270 Y159.229 E6.91501
G1 X160.270 Y127.973 E7.64997
G1 X160.426 Y127.540 E7.66081
G1 X160.799 Y127.152 E7.67346
G1 X161.262 Y126.985 E7.68503
G1 X162.110 Y126.985 E7.70497
G1 X162.200 Y127.001 E7.70713
G1 X162.291 Y126.985 E7.70930
G1 X163.138 Y126.985 E7.72922
G1 X163.229 Y127.001 E7.73139
G1 X163.319 Y126.985 E7.73355
G1 X164.167 Y126.985 E7.75348
G1 X164.257 Y127.001 E7.75564
G1 X164.347 Y126.985 E7.75780
G1 X165.195 Y126.985 E7.77773
G1 X165.285 Y127.001 E7.77989
G1 X165.376 Y126.985 E7.78205
G1 X166.223 Y126.985 E7.80198
G1 X166.314 Y127.001 E7.80414
G1 X166.404 Y126.985 E7.80630
G1 X167.252 Y126.985 E7.82623
G1 X167.342 Y127.001 E7.82839
G1 X167.432 Y126.985 E7.83055
G1 X168.280 Y126.985 E7.85048
G1 X168.370 Y127.001 E7.85264
G1 X168.461 Y126.985 E7.85480
G1 X169.308 Y126.985 E7.87473
G1 X169.399 Y127.001 E7.87689
G1 X169.489 Y126.985 E7.87905
G1 X170.337 Y126.985 E7.89898
G1 X170.427 Y127.001 E7.90114
G1 X170.517 Y126.985 E7.90330
G1 X171.365 Y126.985 E7.92323
G1 X171.455 Y127.001 E7.92539
G1 X171.546 Y126.985 E7.92756
G1 X172.393 Y126.985 E7.94748
G1 X172.484 Y127.001 E7.94965
G1 X172.574 Y126.985 E7.95181
G1 X173.422 Y126.985 E7.97174
G1 X173.512 Y127.001 E7.97390
G1 X173.602 Y126.985 E7.97606
G1 X174.450 Y126.985 E7.99599
G1 X174.540 Y127.001 E7.99815
G1 X174.631 Y126.985 E8.00031
G1 X175.478 Y126.985 E8.02024
G1 X175.569 Y127.001 E8.02240
G1 X175.659 Y126.985 E8.02456
G1 X176.506 Y126.985 E8.04449
G1 X176.597 Y127.001 E8.04665
G1 X176.687 Y126.985 E8.04881
G1 X177.535 Y126.985 E8.06874
G1 X177.625 Y127.001 E8.07090
G1 X177.716 Y126.985 E8.07306
G1 X178.563 Y126.985 E8.09299
G1 X178.654 Y127.001 E8.09515
G1 X178.744 Y126.985 E8.09731
G1 X179.591 Y126.985 E8.11724
G1 X179.682 Y127.001 E8.11940
G1 X179.772 Y126.985 E8.12156
G1 X180.620 Y126.985 E8.14149
G1 X180.710 Y127.001 E8.14365
G1 X180.801 Y126.985 E8.14582
G1 X181.648 Y126.985 E8.16574
G1 X181.738 Y127.001 E8.16791
G1 X181.829 Y126.985 E8.17007
G1 X182.676 Y126.985 E8.19000
G1 X182.767 Y127.001 E8.19216
G1 X182.857 Y126.985 E8.19432
G1 X183.705 Y126.985 E8.21425
G1 X183.795 Y127.001 E8.21641
G1 X183.886 Y126.985 E8.21857
G1 X184.733 Y126.985 E8.23850
G1 X184.823 Y127.001 E8.24066
G1 X184.914 Y126.985 E8.24282
G1 X185.761 Y126.985 E8.26275
G1 X185.852 Y127.001 E8.26491
G1 X185.942 Y126.985 E8.26707
G1 X186.790 Y126.985 E8.28700
G1 X186.880 Y127.001 E8.28916
G1 X186.970 Y126.985 E8.29132
G1 X187.818 Y126.985 E8.31125
G1 X187.908 Y127.001 E8.31341
G1 X187.999 Y126.985 E8.31557
G1 X188.846 Y126.985 E8.33550
G1 X188.937 Y127.001 E8.33766
G1 X189.027 Y126.985 E8.33982
G1 X189.875 Y126.985 E8.35975
G1 X189.965 Y127.001 E8.36191
G1 X190.055 Y126.985 E8.36408
G1 X190.903 Y126.985 E8.38400
G1 X190.993 Y127.001 E8.38617
G1 X191.084 Y126.985 E8.38833
G1 X191.931 Y126.985 E8.40826
G1 X192.022 Y127.001 E8.41042
G1 X192.112 Y126.985 E8.41258
G1 X192.960 Y126.985 E8.43251
G1 X193.050 Y127.001 E8.43467
G1 X193.140 Y126.985 E8.43683
G1 X193.988 Y126.985 E8.45676
G1 X194.078 Y127.001 E8.45892
G1 X194.169 Y126.985 E8.46108
G1 X195.016 Y126.985 E8.48101
G1 X195.107 Y127.001 E8.48317
G1 X195.197 Y126.985 E8.48533
G1 X196.045 Y126.985 E8.50526
G1 X196.135 Y127.001 E8.50742
G1 X196.225 Y126.985 E8.50958
G1 X203.282 Y126.998 E8.67552
G1 X210.955 Y126.985 E8.85595
G1 X211.046 Y127.001 E8.85811
G1 X211.136 Y126.985 E8.86027
G1 X211.983 Y126.985 E8.88020
G1 X212.074 Y127.001 E8.88236
G1 X212.164 Y126.985 E8.88452
G1 X213.012 Y126.985 E8.90445
G1 X213.102 Y127.001 E8.90661
G1 X213.193 Y126.985 E8.90877
G1 X214.040 Y126.985 E8.92870
G1 X214.131 Y127.001 E8.93086
G1 X214.221 Y126.985 E8.93302
G1 X215.068 Y126.985 E8.95295
G1 X215.159 Y127.001 E8.95511
G1 X215.249 Y126.985 E8.95727
G1 X216.097 Y126.985 E8.97720
G1 X216.187 Y127.001 E8.97936
G1 X216.278 Y126.985 E8.98153
G1 X217.125 Y126.985 E9.00145
G1 X217.215 Y127.001 E9.00362
G1 X217.306 Y126.985 E9.00578
G1 X218.153 Y126.985 E9.02571
G1 X218.244 Y127.001 E9.02787
G1 X218.334 Y126.985 E9.03003
G1 X219.186 Y126.985 E9.05006
G1 X219.621 Y127.141 E9.06092
G1 X219.701 Y127.193 E9.06317
G1 X220.060 Y127.609 E9.07610
G1 X220.175 Y127.977 E9.08516
G1 X220.175 Y159.229 E9.82003
G1 X220.021 Y159.600 E9.82949
G1 X219.751 Y159.870 E9.83846
G1 F2160
G1 X219.597 Y159.978 E9.59022
G1 F2160
G1 X219.589 Y160.510 E8.88846
G1 E8.83846 F3000.00000
G92 E0
G1 X219.304 Y159.783 F2700.000
G1 E1.00000 F3000.00000
G1 F900
G1 X219.292 Y161.074 E1.03037
G1 X219.218 Y161.232 E1.03448
G1 X218.960 Y161.490 E1.04304
G1 X218.747 Y161.578 E1.04846
G1 X161.800 Y161.583 E2.38754
G1 X161.476 Y161.459 E2.39572
G1 X161.195 Y161.176 E2.40509
G1 X161.078 Y160.858 E2.41305
G1 X161.078 Y159.760 E2.43887
G1 X160.912 Y159.673 E2.44327
G1 X160.652 Y159.413 E2.45192
G1 X160.564 Y159.200 E2.45734
G1 X160.564 Y128.002 E3.19095
G1 X160.688 Y127.677 E3.19913
G1 X160.971 Y127.396 E3.20850
G1 X161.289 Y127.279 E3.21647
G1 X162.089 Y127.279 E3.23528
G1 X162.200 Y127.305 E3.23797
G1 X162.312 Y127.279 E3.24065
G1 X163.118 Y127.279 E3.25960
G1 X163.229 Y127.305 E3.26229
G1 X163.340 Y127.279 E3.26498
G1 X164.146 Y127.279 E3.28393
G1 X164.257 Y127.305 E3.28661
G1 X164.368 Y127.279 E3.28930
G1 X165.174 Y127.279 E3.30825
G1 X165.285 Y127.305 E3.31094
G1 X165.397 Y127.279 E3.31362
G1 X166.203 Y127.279 E3.33257
G1 X166.314 Y127.305 E3.33526
G1 X166.425 Y127.279 E3.33795
G1 X167.231 Y127.279 E3.35690
G1 X167.342 Y127.305 E3.35958
G1 X167.453 Y127.279 E3.36227
G1 X168.259 Y127.279 E3.38122
G1 X168.370 Y127.305 E3.38391
G1 X168.482 Y127.279 E3.38659
G1 X169.287 Y127.279 E3.40554
G1 X169.399 Y127.305 E3.40823
G1 X169.510 Y127.279 E3.41092
G1 X170.316 Y127.279 E3.42987
G1 X170.427 Y127.305 E3.43255
G1 X170.538 Y127.279 E3.43524
G1 X171.344 Y127.279 E3.45419
G1 X171.455 Y127.305 E3.45688
G1 X171.566 Y127.279 E3.45956
G1 X172.372 Y127.279 E3.47851
G1 X172.484 Y127.305 E3.48120
G1 X172.595 Y127.279 E3.48389
G1 X173.401 Y127.279 E3.50284
G1 X173.512 Y127.305 E3.50552
G1 X173.623 Y127.279 E3.50821
G1 X174.429 Y127.279 E3.52716
G1 X174.540 Y127.305 E3.52985
G1 X174.651 Y127.279 E3.53253
G1 X175.457 Y127.279 E3.55148
G1 X175.569 Y127.305 E3.55417
G1 X175.680 Y127.279 E3.55686
G1 X176.486 Y127.279 E3.57581
G1 X176.597 Y127.305 E3.57849
G1 X176.708 Y127.279 E3.58118
G1 X177.514 Y127.279 E3.60013
G1 X177.625 Y127.305 E3.60282
G1 X177.736 Y127.279 E3.60550
