; generated by Slic3r Prusa Edition 1.39.1-beta-prusa3d-win64 on 2018-05-04 at 09:12:55

; After many experiments, I found, that 0.15mm first layer height is the cleanest look in a mirror.

; external perimeters extrusion width = 0.34mm
; perimeters extrusion width = 0.34mm
; infill extrusion width = 0.34mm
; solid infill extrusion width = 0.34mm
; top infill extrusion width = 0.30mm

M107
M80 ; turn on PSU
M190 S60
M104 S210 ; start E heating
M17; enable motors
G28 X Y ; Z ; Home
M109 S210
G91
G1 E5 F200
G90
; Filament gcode
G21 ; set units to millimeters
G90 ; use absolute coordinates
M82 ; use absolute distances for extrusion
G92 E0
G1 E-1.00000 F3000.00000
G92 E0
G1 Z0.200 F2700.000
G1 X160.307 Y142.276 F2700.000
G1 E1.00000 F3000.00000
G1 F900
G1 X161.121 Y141.426 E1.02768
G1 X162.120 Y140.814 E1.05523
G1 X163.241 Y140.474 E1.08278
G1 X163.994 Y140.411 E1.10056
G1 X216.005 Y140.411 E2.32357
G1 X217.340 Y140.611 E2.35532
G1 X217.971 Y140.856 E2.37123
G1 X218.564 Y141.194 E2.38727
G1 X219.100 Y141.616 E2.40331
G1 X219.564 Y142.109 E2.41923
G1 X219.953 Y142.669 E2.43527
G1 X220.253 Y143.275 E2.45118
G1 X220.502 Y144.111 E2.47168
G1 X220.589 Y144.979 E2.49219
G1 X220.583 Y149.570 E2.60016
G1 X220.491 Y150.283 E2.61707
G1 X220.288 Y150.973 E2.63398
G1 X219.806 Y151.901 E2.65857
G1 X219.127 Y152.696 E2.68315
G1 X212.092 Y158.599 E2.89910
G1 X211.323 Y159.146 E2.92129
G1 X210.428 Y159.630 E2.94521
G1 X209.482 Y160.001 E2.96911
G1 X208.428 Y160.262 E2.99463
G1 X206.889 Y160.382 E3.03093
G1 X171.772 Y160.382 E3.85671
G1 X170.384 Y160.227 E3.88955
G1 X169.412 Y159.965 E3.91321
G1 X168.319 Y159.506 E3.94110
G1 X167.405 Y158.963 E3.96609
G1 X166.259 Y158.015 E4.00107
G1 X160.482 Y152.095 E4.19557
G1 X159.832 Y151.070 E4.22411
G1 X159.474 Y149.910 E4.25265
G1 X159.411 Y149.205 E4.26931
G1 X159.414 Y144.820 E4.37241
G1 X159.510 Y144.049 E4.39068
G1 X159.737 Y143.300 E4.40907
G1 X160.285 Y142.316 E4.43557
G1 X160.535 Y142.463 F2700.000
G1 F900
G1 X161.303 Y141.658 E4.46174
G1 X162.247 Y141.079 E4.48779
G1 X163.314 Y140.761 E4.51396
G1 X163.997 Y140.705 E4.53008
G1 X216.005 Y140.705 E5.75303
G1 X217.271 Y140.898 E5.78314
G1 X218.424 Y141.455 E5.81324
G1 X219.361 Y142.327 E5.84335
G1 X220.002 Y143.441 E5.87357
G1 X220.200 Y144.102 E5.88981
G1 X220.289 Y144.787 E5.90604
G1 X220.295 Y149.343 E6.01317
G1 X220.218 Y150.147 E6.03216
G1 X219.992 Y150.922 E6.05115
G1 X219.540 Y151.770 E6.07374
G1 X218.910 Y152.496 E6.09633
G1 X211.898 Y158.376 E6.31152
G1 X211.159 Y158.901 E6.33285
G1 X210.296 Y159.366 E6.35589
G1 X209.383 Y159.724 E6.37897
G1 X208.352 Y159.976 E6.40391
G1 X206.888 Y160.088 E6.43844
G1 X171.772 Y160.088 E7.26418
G1 X170.458 Y159.941 E7.29526
G1 X169.517 Y159.689 E7.31817
G1 X168.460 Y159.248 E7.34510
G1 X167.580 Y158.726 E7.36918
G1 X166.465 Y157.804 E7.40320
G1 X160.714 Y151.913 E7.59678
G1 X160.096 Y150.939 E7.62391
G1 X159.761 Y149.835 E7.65103
G1 X159.708 Y144.841 E7.76847
G1 X159.795 Y144.126 E7.78542
G1 X160.001 Y143.434 E7.80238
G1 X160.513 Y142.503 E7.82737
G1 F2160
G1 X161.005 Y141.977 E6.87737
G1 E6.82737 F3000.00000
G92 E0
G1 X163.588 Y141.907 F2700.000
G1 E1.00000 F3000.00000
G1 F900
G1 X216.400 Y141.918 E2.24186
G1 X217.028 Y142.053 E2.25697
G1 X217.642 Y142.348 E2.27299
G1 X218.419 Y143.042 E2.29748
G1 X218.657 Y143.388 E2.30735
G1 X219.050 Y144.368 E2.33220
G1 X219.093 Y149.647 E2.45632
G1 X218.646 Y150.947 E2.48865
G1 X218.142 Y151.578 E2.50764
G1 X211.176 Y157.416 E2.72137
G1 X210.612 Y157.825 E2.73774
G1 X209.902 Y158.225 E2.75691
G1 X209.136 Y158.540 E2.77639
G1 X208.350 Y158.754 E2.79555
G1 X207.539 Y158.871 E2.81480
G1 X171.690 Y158.886 E3.65779
G1 X170.761 Y158.776 E3.67979
G1 X169.927 Y158.561 E3.70004
G1 X169.127 Y158.239 E3.72032
G1 X168.374 Y157.816 E3.74063
G1 X167.695 Y157.310 E3.76054
G1 X167.227 Y156.869 E3.77566
G1 X161.569 Y151.087 E3.96590
G1 X160.906 Y149.456 E4.00729
G1 X160.944 Y144.428 E4.12553
G1 X160.999 Y144.157 E4.13202
G1 X161.399 Y143.285 E4.15457
G1 X162.074 Y142.549 E4.17807
G1 X162.257 Y142.423 E4.18328
G1 X163.546 Y141.923 E4.21579
G1 F2160
G1 X164.266 Y141.923 E3.26580
G1 E3.21579 F3000.00000
G92 E0
G1 X162.278 Y142.762 F2700.000
G1 E1.00000 F3000.00000
G1 F900
G1 X162.381 Y142.691 E1.00294
G1 X163.616 Y142.201 E1.03417
G1 X216.383 Y142.213 E2.27497
G1 X216.947 Y142.337 E2.28855
G1 X217.494 Y142.603 E2.30285
G1 X218.208 Y143.249 E2.32549
G1 X218.390 Y143.512 E2.33301
G1 X218.766 Y144.452 E2.35682
G1 X218.799 Y149.623 E2.47841
G1 X218.377 Y150.825 E2.50836
G1 X217.943 Y151.361 E2.52459
G1 X210.991 Y157.187 E2.73787
G1 X210.446 Y157.582 E2.75369
G1 X209.766 Y157.964 E2.77204
G1 X209.033 Y158.264 E2.79066
G1 X208.282 Y158.468 E2.80896
G1 X207.508 Y158.578 E2.82734
G1 X171.698 Y158.592 E3.66939
G1 X170.824 Y158.488 E3.69008
G1 X170.027 Y158.284 E3.70944
G1 X169.262 Y157.978 E3.72881
G1 X168.542 Y157.574 E3.74823
G1 X167.878 Y157.079 E3.76771
G1 X167.431 Y156.657 E3.78216
G1 X161.799 Y150.901 E3.97151
G1 X161.201 Y149.429 E4.00888
G1 X161.238 Y144.443 E4.12612
G1 X161.274 Y144.264 E4.13042
G1 X161.656 Y143.430 E4.15199
G1 X162.248 Y142.795 E4.17240
G1 X162.483 Y142.974 F2700.000
G1 F900
G1 X163.645 Y142.496 E4.20195
G1 X216.367 Y142.507 E5.44168
G1 X216.864 Y142.620 E5.45368
G1 X217.344 Y142.858 E5.46626
G1 X217.997 Y143.454 E5.48706
G1 X218.122 Y143.637 E5.49227
G1 X218.483 Y144.536 E5.51504
G1 X218.504 Y149.598 E5.63407
G1 X218.109 Y150.700 E5.66161
G1 X217.743 Y151.143 E5.67512
G1 X210.805 Y156.958 E5.88798
G1 X210.280 Y157.338 E5.90323
G1 X209.646 Y157.695 E5.92035
G1 X208.947 Y157.982 E5.93811
G1 X208.214 Y158.181 E5.95598
G1 X207.477 Y158.285 E5.97347
G1 X171.707 Y158.297 E6.81459
G1 X170.888 Y158.201 E6.83399
G1 X170.127 Y158.007 E6.85244
G1 X169.397 Y157.716 E6.87092
G1 X168.710 Y157.332 E6.88943
G1 X168.074 Y156.858 E6.90807
G1 X167.639 Y156.449 E6.92211
G1 X162.030 Y150.716 E7.11072
G1 X161.496 Y149.402 E7.14407
G1 X161.533 Y144.459 E7.26032
G1 X161.550 Y144.368 E7.26249
G1 X161.889 Y143.612 E7.28195
G1 X162.452 Y143.007 E7.30140
G1 X162.664 Y143.211 F2700.000
G1 F900
G1 X163.675 Y142.791 E7.32714
G1 X216.349 Y142.802 E8.56576
G1 X216.779 Y142.903 E8.57614
G1 X217.192 Y143.111 E8.58702
G1 X217.784 Y143.659 E8.60599
G1 X217.855 Y143.762 E8.60892
G1 X218.199 Y144.619 E8.63065
G1 X218.209 Y149.572 E8.74710
G1 X217.842 Y150.573 E8.77219
G1 X217.545 Y150.925 E8.78302
G1 X210.620 Y156.728 E8.99547
G1 X210.115 Y157.094 E9.01015
G1 X209.510 Y157.434 E9.02646
G1 X208.844 Y157.706 E9.04337
G1 X208.146 Y157.894 E9.06037
G1 X207.446 Y157.992 E9.07698
G1 X171.716 Y158.002 E9.91718
G1 X170.950 Y157.913 E9.93529
G1 X170.227 Y157.729 E9.95284
G1 X169.532 Y157.454 E9.97042
G1 X168.878 Y157.089 E9.98803
G1 X168.270 Y156.638 E10.00584
G1 X167.848 Y156.241 E10.01946
G1 X162.261 Y150.530 E10.20733
G1 X161.790 Y149.375 E10.23665
G1 X161.827 Y144.478 E10.35180
G1 X162.147 Y143.757 E10.37035
G1 X162.633 Y143.244 E10.38698
G1 F2160
G1 X163.293 Y142.957 E9.43698
G1 E9.38698 F3000.00000
G92 E0
G1 X162.121 Y144.527 F2700.000
G1 E1.00000 F3000.00000
G1 F900
G1 X162.404 Y143.903 E1.01612
G1 X162.854 Y143.438 E1.03132
G1 X163.704 Y143.085 E1.05296
G1 X216.332 Y143.097 E2.29049
G1 X216.662 Y143.174 E2.29847
G1 X217.040 Y143.364 E2.30841
G1 X217.571 Y143.862 E2.32553
G1 X217.915 Y144.703 E2.34689
G1 X217.915 Y149.544 E2.46073
G1 X217.576 Y150.443 E2.48333
G1 X217.348 Y150.706 E2.49151
G1 X210.435 Y156.499 E2.70360
G1 X209.949 Y156.851 E2.71770
G1 X209.374 Y157.172 E2.73319
G1 X208.742 Y157.430 E2.74925
G1 X208.079 Y157.607 E2.76538
G1 X207.416 Y157.699 E2.78111
G1 X171.724 Y157.708 E3.62040
G1 X171.013 Y157.625 E3.63724
G1 X170.326 Y157.452 E3.65389
G1 X169.666 Y157.191 E3.67057
G1 X169.045 Y156.847 E3.68727
G1 X168.465 Y156.418 E3.70424
G1 X168.056 Y156.032 E3.71744
G1 X162.491 Y150.344 E3.90457
G1 X162.085 Y149.348 E3.92986
G1 X162.121 Y144.572 E4.04218
G1 X162.404 Y144.616 F2700.000
G1 F900
G1 X162.635 Y144.088 E4.05574
G1 X163.045 Y143.665 E4.06959
G1 X163.733 Y143.380 E4.08710
G1 X216.315 Y143.391 E5.32357
G1 X216.546 Y143.445 E5.32912
G1 X216.887 Y143.617 E5.33813
G1 X217.334 Y144.043 E5.35263
G1 X217.620 Y144.733 E5.37020
G1 X217.620 Y149.518 E5.48271
G1 X217.336 Y150.271 E5.50165
G1 X217.149 Y150.488 E5.50839
G1 X210.250 Y156.270 E5.72005
G1 X209.784 Y156.607 E5.73357
G1 X209.239 Y156.910 E5.74824
G1 X208.640 Y157.153 E5.76344
G1 X208.012 Y157.320 E5.77871
G1 X207.386 Y157.406 E5.79357
G1 X171.732 Y157.413 E6.63195
G1 X171.075 Y157.337 E6.64752
G1 X170.425 Y157.174 E6.66328
G1 X169.800 Y156.929 E6.67906
G1 X169.212 Y156.604 E6.69486
G1 X168.661 Y156.197 E6.71097
G1 X168.265 Y155.824 E6.72375
G1 X162.722 Y150.159 E6.91013
G1 X162.380 Y149.320 E6.93142
G1 X162.403 Y144.661 E7.04098
G1 X162.686 Y144.706 F2700.000
G1 F900
G1 X162.893 Y144.232 E7.05315
G1 X163.231 Y143.894 E7.06440
G1 X163.762 Y143.674 E7.07790
G1 X216.299 Y143.686 E8.31329
G1 X216.429 Y143.716 E8.31643
G1 X216.734 Y143.869 E8.32446
G1 X217.106 Y144.232 E8.33668
G1 X217.326 Y144.762 E8.35016
G1 X217.326 Y149.491 E8.46136
G1 X217.095 Y150.100 E8.47669
G1 X216.950 Y150.271 E8.48195
G1 X210.065 Y156.041 E8.69319
G1 X209.619 Y156.362 E8.70612
G1 X209.104 Y156.648 E8.71997
G1 X208.538 Y156.876 E8.73431
G1 X207.946 Y157.033 E8.74871
G1 X207.357 Y157.112 E8.76270
G1 X171.741 Y157.119 E9.60019
G1 X171.137 Y157.048 E9.61450
G1 X170.523 Y156.896 E9.62936
G1 X169.933 Y156.666 E9.64424
G1 X169.378 Y156.361 E9.65914
G1 X168.856 Y155.976 E9.67439
G1 X168.473 Y155.616 E9.68675
G1 X162.952 Y149.973 E9.87238
G1 X162.674 Y149.292 E9.88968
G1 X162.686 Y144.751 E9.99645
G1 X162.969 Y144.791 F2700.000
G1 F900
G1 X163.123 Y144.419 E10.00591
G1 X163.419 Y144.123 E10.01576
G1 X163.791 Y143.969 E10.02522
G1 X216.283 Y143.980 E11.25955
G1 X216.580 Y144.121 E11.26728
G1 X216.877 Y144.419 E11.27717
G1 X217.031 Y144.791 E11.28663
G1 X217.031 Y149.464 E11.39652
G1 X216.853 Y149.931 E11.40827
G1 X216.750 Y150.054 E11.41205
G1 X209.880 Y155.811 E11.62282
G1 X209.454 Y156.118 E11.63517
G1 X208.985 Y156.379 E11.64778
G1 X208.453 Y156.594 E11.66127
G1 X207.897 Y156.742 E11.67480
G1 X207.327 Y156.819 E11.68833
G1 X171.750 Y156.824 E12.52492
G1 X171.181 Y156.757 E12.53839
G1 X170.604 Y156.613 E12.55238
G1 X170.050 Y156.395 E12.56636
G1 X169.529 Y156.107 E12.58035
G1 X169.051 Y155.756 E12.59431
G1 X168.682 Y155.408 E12.60624
G1 X163.183 Y149.788 E12.79113
G1 X162.969 Y149.263 E12.80445
G1 X162.969 Y144.836 E12.90857
G1 X163.264 Y144.820 F2700.000
G1 F900
G1 X163.352 Y144.607 E12.91398
G1 X163.607 Y144.352 E12.92247
G1 X163.820 Y144.264 E12.92788
G1 X216.233 Y144.275 E14.16038
G1 X216.391 Y144.349 E14.16446
G1 X216.648 Y144.607 E14.17303
G1 X216.736 Y144.820 E14.17845
G1 X216.736 Y149.436 E14.28700
G1 X216.609 Y149.764 E14.29527
G1 X216.549 Y149.838 E14.29751
G1 X209.703 Y155.576 E14.50755
G1 X209.289 Y155.874 E14.51956
G1 X208.850 Y156.116 E14.53134
G1 X208.352 Y156.317 E14.54398
G1 X207.831 Y156.455 E14.55664
G1 X207.298 Y156.526 E14.56930
G1 X171.759 Y156.529 E15.40499
G1 X171.225 Y156.466 E15.41762
G1 X170.685 Y156.329 E15.43072
G1 X170.184 Y156.132 E15.44338
G1 X169.696 Y155.864 E15.45649
G1 X169.246 Y155.535 E15.46958
G1 X168.890 Y155.200 E15.48108
G1 X163.413 Y149.602 E15.66523
G1 X163.264 Y149.235 E15.67456
G1 X163.264 Y144.865 E15.77732
G1 F2160
G1 X163.352 Y144.607 E15.41769
G1 F2160
G1 X163.607 Y144.352 E14.94181
G1 F2160
G1 X163.687 Y144.319 E14.82732
G1 E14.77732 F3000.00000
G92 E0
G1 X163.795 Y144.581 F2700.000
G1 E1.00000 F3000.00000
G1 F900
G1 X163.849 Y144.558 E1.00138
G1 X216.151 Y144.558 E2.23125
G1 X216.205 Y144.581 E2.23263
G1 X216.419 Y144.795 E2.23975
G1 X216.442 Y144.849 E2.24113
G1 X216.442 Y149.407 E2.34831
G1 X216.346 Y149.624 E2.35389
G1 X209.526 Y155.340 E2.56313
G1 X209.138 Y155.621 E2.57439
G1 X208.716 Y155.854 E2.58574
G1 X208.251 Y156.040 E2.59752
G1 X207.766 Y156.167 E2.60931
G1 X207.269 Y156.232 E2.62109
G1 X171.768 Y156.235 E3.45590
G1 X171.270 Y156.174 E3.46767
G1 X170.767 Y156.046 E3.47989
G1 X170.301 Y155.862 E3.49167
G1 X169.861 Y155.620 E3.50347
G1 X169.441 Y155.314 E3.51569
G1 X169.099 Y154.991 E3.52676
G1 X163.644 Y149.417 E3.71016
G1 X163.558 Y149.206 E3.71551
G1 X163.558 Y144.849 E3.81797
G1 X163.581 Y144.795 E3.81935
G1 X163.763 Y144.612 E3.82541
G1 X163.939 Y144.853 F2700.000
G1 F900
G1 X216.061 Y144.853 E5.05104
G1 X216.147 Y144.939 E5.05391
G1 X216.147 Y149.370 E5.15811
G1 X216.120 Y149.429 E5.15964
G1 X209.350 Y155.104 E5.36737
G1 X208.973 Y155.376 E5.37829
G1 X208.582 Y155.591 E5.38878
G1 X208.151 Y155.763 E5.39970
G1 X207.701 Y155.880 E5.41062
G1 X207.241 Y155.939 E5.42153
G1 X171.777 Y155.940 E6.25546
G1 X171.316 Y155.883 E6.26638
G1 X170.866 Y155.769 E6.27730
G1 X170.434 Y155.599 E6.28821
G1 X170.027 Y155.376 E6.29913
G1 X169.636 Y155.093 E6.31048
G1 X169.307 Y154.783 E6.32110
G1 X163.875 Y149.231 E6.50376
G1 X163.853 Y149.178 E6.50512
G1 X163.853 Y144.939 E6.60478
G1 X163.907 Y144.885 E6.60660
G1 F2160
G1 X164.627 Y144.884 E5.65660
G1 E5.60660 F3000.00000
G92 E0
G1 X164.169 Y145.169 F2700.000
G1 E1.00000 F3000.00000
G1 F900
G1 X215.831 Y145.169 E2.21482
G1 X215.831 Y149.259 E2.31100
G1 X209.159 Y154.852 E2.51573
G1 X208.812 Y155.105 E2.52583
G1 X208.439 Y155.309 E2.53582
G1 X208.045 Y155.465 E2.54580
G1 X207.633 Y155.571 E2.55578
G1 X207.212 Y155.624 E2.56577
G1 X171.788 Y155.624 E3.39876
G1 X171.367 Y155.571 E3.40874
G1 X170.955 Y155.465 E3.41873
G1 X170.561 Y155.309 E3.42871
G1 X170.188 Y155.105 E3.43870
G1 X169.845 Y154.855 E3.44868
G1 X169.530 Y154.560 E3.45883
G1 X164.169 Y149.080 E3.63910
G1 X164.169 Y145.214 E3.73001
G1 X164.450 Y145.272 F2700.000
G1 F2160
G1 X164.889 Y145.213 E2.78001
G1 E2.73001 F3000.00000
G92 E0
G1 X164.463 Y145.463 F2700.000
G1 E1.00000 F3000.00000
G1 F900
G1 X215.537 Y145.463 E2.20097
G1 X215.537 Y149.121 E2.28699
G1 X208.978 Y154.620 E2.48825
G1 X208.653 Y154.855 E2.49767
G1 X208.314 Y155.042 E2.50678
G1 X207.954 Y155.185 E2.51589
G1 X207.578 Y155.281 E2.52501
G1 X207.194 Y155.330 E2.53412
G1 X171.806 Y155.330 E3.36624
G1 X171.422 Y155.281 E3.37535
G1 X171.046 Y155.185 E3.38447
G1 X170.686 Y155.042 E3.39358
G1 X170.347 Y154.855 E3.40269
G1 X170.033 Y154.628 E3.41180
G1 X169.736 Y154.349 E3.42137
G1 X164.463 Y148.960 E3.59867
G1 X164.463 Y145.508 E3.67983
G1 F2160
G1 X165.183 Y145.508 E2.72983
G1 E2.67983 F3000.00000
G92 E0
G1 X164.590 Y148.835 F2700.000
G1 E1.00000 F3000.00000
G1 F900
G1 X170.611 Y154.856 E1.20076
G1 F2160
G1 X170.102 Y154.347 E0.25076
G1 E0.20076 F3000.00000
G92 E0
G1 X171.288 Y155.116 F2700.000
G1 E1.00000 F3000.00000
G1 F900
G1 X164.723 Y148.550 E1.21894
G1 X164.723 Y148.132 E1.22878
G1 X171.637 Y155.047 E1.45935
G1 X171.823 Y155.070 E1.46375
G1 X172.078 Y155.070 E1.46978
G1 X164.723 Y147.715 E1.71505
G1 X164.723 Y147.297 E1.72490
G1 X172.496 Y155.070 E1.98410
G1 X172.914 Y155.070 E1.99395
G1 X164.723 Y146.879 E2.26708
G1 X164.723 Y146.462 E2.27693
G1 X173.331 Y155.070 E2.56398
G1 X173.749 Y155.070 E2.57383
G1 X164.723 Y146.044 E2.87482
G1 X164.723 Y145.723 E2.88239
G1 X164.819 Y145.723 E2.88466
G1 X174.167 Y155.070 E3.19636
G1 X174.585 Y155.070 E3.20621
G1 X165.237 Y145.723 E3.51791
G1 X165.654 Y145.723 E3.52776
G1 X175.002 Y155.070 E3.83946
G1 X175.420 Y155.070 E3.84931
G1 X166.072 Y145.723 E4.16101
G1 X166.490 Y145.723 E4.17086
G1 X175.838 Y155.070 E4.48256
G1 X176.255 Y155.070 E4.49241
G1 X166.908 Y145.723 E4.80411
G1 X167.325 Y145.723 E4.81395
G1 X176.673 Y155.070 E5.12565
G1 X177.091 Y155.070 E5.13550
G1 X167.743 Y145.723 E5.44720
G1 X168.161 Y145.723 E5.45705
G1 X177.509 Y155.070 E5.76875
G1 X177.926 Y155.070 E5.77860
G1 X168.578 Y145.723 E6.09030
G1 X168.996 Y145.723 E6.10015
G1 X178.344 Y155.070 E6.41185
G1 X178.762 Y155.070 E6.42170
G1 X169.414 Y145.723 E6.73339
G1 X169.832 Y145.723 E6.74324
G1 X179.179 Y155.070 E7.05494
G1 X179.597 Y155.070 E7.06479
G1 X170.249 Y145.723 E7.37649
G1 X170.667 Y145.723 E7.38634
G1 X180.015 Y155.070 E7.69804
G1 X180.433 Y155.070 E7.70789
G1 X171.085 Y145.723 E8.01959
G1 X171.502 Y145.723 E8.02944
G1 X180.850 Y155.070 E8.34114
G1 X181.268 Y155.070 E8.35098
G1 X171.920 Y145.723 E8.66268
